X:1
T:Road to Gundagai
M:4/4
L:1/4
K:C
 z2 C C| G G G A| D C C C| G G G A| G3 c| c c c c| A G G E| E D C E|\
 D2 D E| F F F F| E G2 E| F G A B| c2 c d| e e d3/2 d/2| c/2- G3/2 G F|\
 E E D D| C4-| C2 C C| G3/2 G/2 G A| D/2 C3/2 C C| G3/2 G/2 G A| G3 E|\
 G3/2 A/2 G E| G3 E| E E D C| D2 E D| C C c c| A c G F| D3/2 C/2 C A,|\
 C2 z2|
